metawallet-ui/public/i/icons/arrow-transaction-down.svg

<svg width="10" height="32" viewBox="0 0 10 32" fill="none" xmlns="http://www.w3.org/2000/svg">
    <path opacity="0.3" d="M9 1.5C9.27614 1.5 9.5 1.27614 9.5 1C9.5 0.723858 9.27614 0.5 9 0.5V1.5ZM9 27.8085L9.3249 28.1886C9.43 28.0987 9.49321 27.9693 9.49949 27.8312C9.50576 27.6931 9.45456 27.5585 9.35803 27.4595L9 27.8085ZM5.6247 23.6297C5.43194 23.432 5.11539 23.4279 4.91765 23.6207C4.71991 23.8134 4.71588 24.13 4.90863 24.3277L5.6247 23.6297ZM4.94177 30.6199C4.73187 30.7994 4.70718 31.115 4.88661 31.3249C5.06605 31.5348 5.38166 31.5595 5.59156 31.3801L4.94177 30.6199ZM9 0.5H6V1.5H9V0.5ZM0.5 6V22.8085H1.5V6H0.5ZM6 28.3085H9V27.3085H6V28.3085ZM9.35803 27.4595L5.6247 23.6297L4.90863 24.3277L8.64197 28.1575L9.35803 27.4595ZM8.6751 27.4285L4.94177 30.6199L5.59156 31.3801L9.3249 28.1886L8.6751 27.4285ZM0.5 22.8085C0.5 25.8461 2.96243 28.3085 6 28.3085V27.3085C3.51472 27.3085 1.5 25.2938 1.5 22.8085H0.5ZM6 0.5C2.96243 0.5 0.5 2.96243 0.5 6H1.5C1.5 3.51472 3.51472 1.5 6 1.5V0.5Z" fill="#99CEFF"/>
</svg>

<svg width="10" height="32" fill="none" xmlns="http://www.w3.org/2000/svg"><path opacity=".3" d="M9 1.5a.5.5 0 0 0 0-1v1zm0 26.308l.325.38a.5.5 0 0 0 .033-.729L9 27.81zM5.625 23.63a.5.5 0 0 0-.716.698l.716-.698zm-.683 6.99a.5.5 0 0 0 .65.76l-.65-.76zM9 .5H6v1h3v-1zM.5 6v16.808h1V6h-1zM6 28.308h3v-1H6v1zm3.358-.849l-3.733-3.83-.716.699 3.733 3.83.716-.699zm-.683-.03l-3.733 3.19.65.761 3.733-3.191-.65-.76zM.5 22.808a5.5 5.5 0 0 0 5.5 5.5v-1a4.5 4.5 0 0 1-4.5-4.5h-1zM6 .5A5.5 5.5 0 0 0 .5 6h1A4.5 4.5 0 0 1 6 1.5v-1z" fill="#99CEFF"/></svg>
